components/ui-node-icon/src/apiColumn/apiColumn.medium.svg

<svg width="24" height="24" viewBox="0 0 24 24" fill="none" xmlns="http://www.w3.org/2000/svg">
  <path fill-rule="evenodd" clip-rule="evenodd" d="M11 4C11 2.89543 10.1046 2 9 2H5C3.89543 2 3 2.89543 3 4V19C3 20.1046 3.89543 21 5 21H9C9.29303 21 9.57135 20.937 9.82213 20.8238C7.52936 19.417 6 16.8871 6 14C6 10.6426 8.06817 7.76829 11 6.58152V4Z" fill="var(--tbl--colors--icons--clean--secondary)"/>
  <path fill-rule="evenodd" clip-rule="evenodd" d="M14 22C18.4183 22 22 18.4183 22 14C22 9.58172 18.4183 6 14 6C9.58172 6 6 9.58172 6 14C6 18.4183 9.58172 22 14 22ZM12.7071 10.2929C13.0976 10.6834 13.0976 11.3166 12.7071 11.7071L10.4142 14L12.7071 16.2929C13.0976 16.6834 13.0976 17.3166 12.7071 17.7071C12.3166 18.0976 11.6834 18.0976 11.2929 17.7071L8.29291 14.7071C7.90238 14.3166 7.90238 13.6834 8.29291 13.2929L11.2929 10.2929C11.6834 9.90236 12.3166 9.90236 12.7071 10.2929ZM15.2929 10.2929C14.9024 10.6834 14.9024 11.3166 15.2929 11.7071L17.5858 14L15.2929 16.2929C14.9024 16.6834 14.9024 17.3166 15.2929 17.7071C15.6834 18.0976 16.3166 18.0976 16.7071 17.7071L19.7071 14.7071C20.0976 14.3166 20.0976 13.6834 19.7071 13.2929L16.7071 10.2929C16.3166 9.90236 15.6834 9.90236 15.2929 10.2929Z" fill="var(--tbl--colors--icons--clean--primary)"/>
</svg>

<svg xmlns="http://www.w3.org/2000/svg" width="24" height="24" fill="none" viewBox="0 0 24 24">
  <path fill="var(--tbl--colors--icons--clean--secondary)" fill-rule="evenodd" d="M11 4a2 2 0 0 0-2-2H5a2 2 0 0 0-2 2v15a2 2 0 0 0 2 2h4c.293 0 .571-.063.822-.176A8.003 8.003 0 0 1 11 6.582V4Z" clip-rule="evenodd"/>
  <path fill="var(--tbl--colors--icons--clean--primary)" fill-rule="evenodd" d="M14 22a8 8 0 1 0 0-16 8 8 0 0 0 0 16Zm-1.293-11.707a1 1 0 0 1 0 1.414L10.414 14l2.293 2.293a1 1 0 0 1-1.414 1.414l-3-3a1 1 0 0 1 0-1.414l3-3a1 1 0 0 1 1.414 0Zm2.586 0a1 1 0 0 0 0 1.414L17.586 14l-2.293 2.293a1 1 0 0 0 1.414 1.414l3-3a1 1 0 0 0 0-1.414l-3-3a1 1 0 0 0-1.414 0Z" clip-rule="evenodd"/>
</svg>
